X:200
T:My own Blue Bell. CJF.200
R:Air
S:C.J.Fox MS, 1829/33, Beverley,E.Yorks.
B:Kidson Coll.Mitchell Lib.M1805
O:England
A:East Yorkshire
Z:vmp.P J Headford 2000 & 2008
M:6/8
L:1/8
Q:3/8=90
K:Eb
E|G2AB2E|G G AB2B|B A A (AG) G|\
(e>c) (A/F/) (ED) (E/F/)|G2A B E F|!
G2AB2e|e d c c B G|(BA) F (G>B) e|\
f e c c B G|BA FE2z||!
G|F2=AB2d|F G =AB2F|e d c d c B|\
(dc) B”tr”B{=AcB}h=A F|f2de2c|!
d d B Hc F F|F =E F f _e d|\
c B cHB2″~”B/ ” ad lib”{c2d2e2f2g2a2f2d2B2A2F2D2B,2\
.f2.e2.d2.c2.B2} ^A/=A/|!
G2A{c/}B2{d/}E|G G A{c}B2B|B A A (AG) G|\
(e>c) (A/F/) (ED) H(E/F/)|G2A BD E|!
G2AB2e|e d c cB G|(BA) F (GB) e|\
f e c c B G|” ad lib:”BHA FE2z|]

